vendor/shopware/storefront/Resources/app/storefront/dist/assets/icon/default/editor-superscript.svg

<svg xmlns="http://www.w3.org/2000/svg" width="12" height="12" viewBox="0 0 12 12">
  <path fill="#758CA3" fill-rule="evenodd" d="M2.83380962,6 L0.142507074,1.51449576 C-0.141641085,1.04091549 0.0119239786,0.426655234 0.485504245,0.142507074 C0.959084511,-0.141641085 1.57334477,0.0119239786 1.85749293,0.485504245 L4,4.05634937 L6.14250707,0.485504245 C6.42665523,0.0119239786 7.04091549,-0.141641085 7.51449576,0.142507074 C7.98807602,0.426655234 8.14164109,1.04091549 7.85749293,1.51449576 L5.16619038,6 L7.85749293,10.4855042 C8.14164109,10.9590845 7.98807602,11.5733448 7.51449576,11.8574929 C7.04091549,12.1416411 6.42665523,11.988076 6.14250707,11.5144958 L4,7.94365063 L1.85749293,11.5144958 C1.57334477,11.988076 0.959084511,12.1416411 0.485504245,11.8574929 C0.0119239786,11.5733448 -0.141641085,10.9590845 0.142507074,10.4855042 L2.83380962,6 Z M10.5,4 C9.67157288,4 9,3.32842712 9,2.5 C9,1.67157288 9.67157288,1 10.5,1 C11.3284271,1 12,1.67157288 12,2.5 C12,3.32842712 11.3284271,4 10.5,4 Z"/>
</svg>

<svg xmlns="http://www.w3.org/2000/svg" width="12" height="12" viewBox="0 0 12 12"><path fill="#758CA3" fill-rule="evenodd" d="M2.8338 6 .1425 1.5145C-.1416 1.0409.012.4267.4855.1425c.4736-.2841 1.0878-.1306 1.372.343L4 4.0563 6.1425.4855c.2842-.4736.8984-.6271 1.372-.343.4736.2842.6271.8984.343 1.372L5.1662 6l2.6913 4.4855c.2841.4736.1306 1.0878-.343 1.372-.4736.2841-1.0878.1306-1.372-.343L4 7.9437l-2.1425 3.5708c-.2842.4736-.8984.6271-1.372.343-.4736-.2842-.6271-.8984-.343-1.372L2.8338 6zM10.5 4C9.6716 4 9 3.3284 9 2.5S9.6716 1 10.5 1s1.5.6716 1.5 1.5S11.3284 4 10.5 4z"/></svg>
